frontend/public/svg/health/flask-round.svg

<svg width="122" height="165" viewBox="0 0 122 165" fill="none" xmlns="http://www.w3.org/2000/svg">
<g clip-path="url(#clip0)">
<path d="M39.5422 60.8898C39.7995 50.5092 40.0377 40.0754 40.3239 29.6429C40.5089 22.9102 40.7005 16.1768 41.0097 9.44933C41.242 4.4034 43.2215 2.50459 48.3121 2.25124C59.8558 1.67716 71.4001 1.12363 82.9458 0.590686C86.0443 0.442354 87.6209 1.77746 87.7607 4.81762C87.8381 6.49719 87.7607 8.18595 87.7082 9.87142C87.273 23.6746 86.8274 37.4771 86.3706 51.279C86.2557 54.6152 85.9768 57.9455 85.7693 61.3276C88.5824 62.2983 91.469 63.1778 94.2683 64.2811C107.178 69.3662 115.454 78.4578 118.763 92.1156C121.532 103.536 122.252 114.881 119.611 126.431C115.841 142.919 105.972 153.872 90.1622 159.565C78.039 163.931 65.4596 165.037 52.6853 164.464C44.0243 164.191 35.5001 162.229 27.591 158.689C14.3126 152.585 5.12191 142.871 1.59672 128.41C-1.00894 117.72 0.0451288 107.258 3.93524 97.0158C9.12819 83.3416 17.448 72.2449 30.4041 65.0339C33.2191 63.464 36.2855 62.3495 39.5422 60.8898ZM46.9824 8.17991C46.903 8.97211 46.8163 9.41133 46.8202 9.84976C46.9666 26.0154 47.1486 42.1802 47.2372 58.3465C47.2023 60.1304 46.9261 61.9012 46.4161 63.611C46.2711 64.2873 45.8845 64.8875 45.3288 65.2993C44.773 65.7111 44.0861 65.906 43.3969 65.8476C40.2425 65.534 37.7558 67.0835 35.2696 68.5458C21.8035 76.4691 14.2009 88.6566 10.2038 103.391C9.56584 105.741 9.23563 108.174 8.67315 111.027C9.63141 110.456 10.1323 110.214 10.5708 109.887C18.1423 104.243 26.7692 102.325 35.9993 103.041C42.0337 103.509 48.0327 104.43 54.0454 105.172C64.3033 106.439 74.5499 107.577 84.9109 106.189C94.2965 104.932 103.196 101.989 112.041 98.9474C111.155 88.9993 106.331 80.7012 98.1682 75.7846C94.0569 73.3056 89.6358 71.3267 85.285 69.2645C82.4437 67.917 79.6687 66.5532 77.8395 64.413C78.7452 45.0346 79.6326 26.0593 80.5383 6.67112C69.3438 6.67768 58.3075 7.36802 46.9824 8.17991ZM113.525 106.202C112.081 106.896 111.117 107.463 110.083 107.843C96.001 113.034 81.5182 115.627 66.5019 113.983C58.1455 113.067 49.8311 111.745 41.5055 110.57C35.2499 109.685 29.0173 109.119 22.8168 110.956C18.1063 112.353 13.8539 114.494 10.5354 118.228C9.54241 119.344 8.8736 120.477 9.1276 122.148C10.2919 129.799 13.3203 136.514 18.7403 142.1C23.5483 147.029 29.535 150.648 36.1333 152.615C54.0854 158.129 72.0283 157.495 89.6509 151.237C100.951 147.224 108.357 139.205 111.592 127.52C113.618 120.608 114.275 113.366 113.525 106.202Z" fill="black"/>
</g>
<defs>
<clipPath id="clip0">
<rect width="121.423" height="164.741" fill="white" transform="translate(0.161865 0.0419922)"/>
</clipPath>
</defs>
</svg>

<svg xmlns="http://www.w3.org/2000/svg" width="122" height="165" fill="none" viewBox="0 0 122 165"><g clip-path="url(#a)"><path fill="#000" d="M39.542 60.89c.258-10.38.496-20.815.782-31.247.185-6.733.377-13.466.686-20.194.232-5.046 2.212-6.944 7.302-7.198A9731 9731 0 0 1 82.946.591c3.098-.149 4.675 1.186 4.815 4.227.077 1.68 0 3.368-.053 5.053q-.652 20.706-1.337 41.408c-.115 3.336-.394 6.666-.602 10.049 2.813.97 5.7 1.85 8.5 2.953 12.909 5.085 21.185 14.177 24.494 27.835 2.769 11.42 3.489 22.765.848 34.315-3.77 16.488-13.639 27.441-29.449 33.134-12.123 4.366-24.702 5.472-37.477 4.899a66.6 66.6 0 0 1-25.094-5.775c-13.278-6.104-22.47-15.818-25.994-30.279-2.606-10.69-1.552-21.152 2.338-31.394 5.193-13.674 13.513-24.771 26.47-31.982 2.814-1.57 5.88-2.685 9.137-4.144m7.44-52.71c-.079.792-.166 1.231-.162 1.67.147 16.165.329 32.33.417 48.497a19.8 19.8 0 0 1-.82 5.264 2.84 2.84 0 0 1-3.02 2.237c-3.154-.314-5.641 1.236-8.127 2.698-13.467 7.923-21.07 20.11-25.066 34.845-.638 2.35-.968 4.783-1.53 7.636.957-.571 1.458-.813 1.897-1.14 7.571-5.644 16.198-7.562 25.428-6.846 6.035.468 12.034 1.389 18.046 2.131 10.258 1.267 20.505 2.405 30.866 1.017 9.385-1.257 18.285-4.2 27.13-7.242-.886-9.948-5.71-18.246-13.873-23.162-4.111-2.48-8.532-4.458-12.883-6.52-2.841-1.348-5.616-2.712-7.445-4.852l2.698-57.742c-11.194.007-22.23.697-33.556 1.509m66.543 98.022c-1.444.694-2.408 1.261-3.442 1.641-14.082 5.191-28.565 7.784-43.581 6.14-8.356-.916-16.67-2.238-24.996-3.413-6.256-.885-12.489-1.451-18.69.386-4.71 1.397-8.962 3.538-12.28 7.272-.994 1.116-1.662 2.249-1.408 3.92 1.164 7.651 4.192 14.366 9.612 19.952a40.4 40.4 0 0 0 17.393 10.515c17.952 5.514 35.895 4.88 53.518-1.378 11.3-4.013 18.706-12.032 21.941-23.717a55.3 55.3 0 0 0 1.933-21.318"/></g><defs><clipPath id="a"><path fill="#fff" d="M.162.042h121.423v164.741H.162z"/></clipPath></defs></svg>
